packages/ui-components/style/icons/filetype/python.svg

<svg version="1.1" id="Layer_1" xmlns="http://www.w3.org/2000/svg" xmlns:xlink="http://www.w3.org/1999/xlink" x="0px" y="0px" viewBox="0 0 22 22" style="enable-background:new 0 0 22 22;" xml:space="preserve">
	<g
		class="jp-icon-brand0 jp-icon-selectable"
		fill="#0D47A1"
	>
		<path d="M11.1,6.9c0-0.2,0-1.1,0-1.1c-1.4,0-3.5,0-4.2,0c0-0.5,0-1.3,0.2-1.6c0.4-0.7,0.8-1.1,1.7-1.4 c1.7-0.3,2.5-0.3,3.9-0.1c1,0.1,1.9,0.9,1.9,1.9c0,1.1,0,3,0,4.2c0,0.5-0.9,1.6-2,1.6s-2.5,0-3.8,0c-1.5,0-2.4,1.4-2.4,2.8 c0,0.4,0,2.2,0,2.2c-0.5,0-1.2,0-1.7,0C3.5,15.1,3,14,3,13.1c0-1.3,0-2.7,0-4.1C2.9,8,3.6,7,4.8,7C6.3,6.9,11.1,6.9,11.1,6.9z"/>
		<path d="M10.9,15.1c0,0.2,0,1.1,0,1.1c1.4,0,3.5,0,4.2,0c0,0.5,0,1.3-0.2,1.6c-0.4,0.7-0.8,1.1-1.7,1.4 c-1.7,0.3-2.5,0.3-3.9,0.1c-1-0.1-1.9-0.9-1.9-1.9c0-1.1,0-3,0-4.2c0-0.5,0.9-1.6,2-1.6s2.5,0,3.8,0c1.5,0,2.4-1.4,2.4-2.8 c0-0.4,0-2.2,0-2.2c0.5,0,1.2,0,1.7,0C18.5,6.9,19,8,19,8.9c0,1.3,0,2.7,0,4.1c0,1-0.7,2.1-1.9,2.1 C15.7,15.1,10.9,15.1,10.9,15.1z"/>
	</g>
</svg>

<svg xmlns="http://www.w3.org/2000/svg" width="16" viewBox="0 0 22 22">
  <g class="jp-icon-brand0 jp-icon-selectable" fill="#0D47A1">
    <path d="M11.1 6.9V5.8H6.9c0-.5 0-1.3.2-1.6.4-.7.8-1.1 1.7-1.4 1.7-.3 2.5-.3 3.9-.1 1 .1 1.9.9 1.9 1.9v4.2c0 .5-.9 1.6-2 1.6H8.8c-1.5 0-2.4 1.4-2.4 2.8v2.2H4.7C3.5 15.1 3 14 3 13.1V9c-.1-1 .6-2 1.8-2 1.5-.1 6.3-.1 6.3-.1z"/>
    <path d="M10.9 15.1v1.1h4.2c0 .5 0 1.3-.2 1.6-.4.7-.8 1.1-1.7 1.4-1.7.3-2.5.3-3.9.1-1-.1-1.9-.9-1.9-1.9v-4.2c0-.5.9-1.6 2-1.6h3.8c1.5 0 2.4-1.4 2.4-2.8V6.6h1.7C18.5 6.9 19 8 19 8.9V13c0 1-.7 2.1-1.9 2.1h-6.2z"/>
  </g>
</svg>
